src/img/quotes.svg

<svg width="87" height="62" viewBox="0 0 87 62" fill="none" xmlns="http://www.w3.org/2000/svg">
<g opacity="0.6">
<path d="M67.7067 61.414C78.3457 61.414 87 52.7597 87 42.1206C87 31.8573 78.9457 23.4393 68.8258 22.8578C68.6506 20.966 68.782 15.8164 73.7166 8.65296C74.0896 8.11258 74.0219 7.38381 73.5586 6.92051C71.5393 4.90124 70.2914 3.6295 69.418 2.74003C68.2748 1.57705 67.7531 1.04606 66.9898 0.353029C66.7309 0.118124 66.4044 -5.82887e-06 66.0764 -5.80019e-06C65.7579 -5.77235e-06 65.4406 0.111456 65.1843 0.333178C56.5857 7.81528 47.0339 23.2747 48.4159 42.2189C49.2257 53.3411 57.3385 61.414 67.7067 61.414ZM66.0632 3.21664C66.4335 3.58164 66.8557 4.01177 67.4783 4.64512C68.235 5.41632 69.2732 6.47313 70.8477 8.05291C64.859 17.2808 65.9902 23.8534 66.4853 24.796C66.7203 25.2434 67.2022 25.5448 67.7067 25.5448C76.8456 25.5448 84.2812 32.9804 84.2812 42.1206C84.2812 51.2596 76.8456 58.6952 67.7067 58.6952C58.804 58.6952 51.8317 51.683 51.1269 42.0225C49.5736 20.7151 62.2371 6.88068 66.0632 3.21664Z" fill="#F59E27"/>
<path d="M0.13397 42.2189L0.13397 42.2202C0.946494 53.3411 9.06045 61.414 19.426 61.414C30.0651 61.414 38.7208 52.7597 38.7208 42.1206C38.7208 31.8573 30.6651 23.4393 20.5439 22.8578C20.3686 20.9674 20.5014 15.8205 25.4372 8.65296C25.8102 8.11258 25.7425 7.38381 25.2793 6.92051C23.268 4.90925 22.0228 3.6401 21.1492 2.752C20.0009 1.58113 19.4764 1.04742 18.7092 0.351805C18.4504 0.118124 18.1225 -5.82863e-06 17.7958 -5.80008e-06C17.4771 -5.77222e-06 17.1599 0.111456 16.9037 0.334536C8.30514 7.81664 -1.24665 23.2759 0.13397 42.2189ZM17.7826 3.21664C18.1556 3.58436 18.5817 4.01707 19.2097 4.65695C19.9664 5.42706 21.0005 6.48102 22.5684 8.05291C16.5798 17.2821 17.7095 23.8534 18.2034 24.796C18.4384 25.2421 18.9215 25.5448 19.426 25.5448C28.5663 25.5448 36.0019 32.9804 36.0019 42.1206C36.0019 51.2596 28.5663 58.6952 19.426 58.6952C10.5248 58.6952 3.55114 51.683 2.84492 42.0211L2.84492 42.0225C1.29301 20.7178 13.9565 6.88068 17.7826 3.21664Z" fill="#F59E27"/>
</g>
</svg>

<svg width="87" height="62" fill="none" xmlns="http://www.w3.org/2000/svg"><g opacity=".6" fill="#F59E27"><path d="M67.707 61.414C78.346 61.414 87 52.76 87 42.121c0-10.264-8.054-18.682-18.174-19.263-.175-1.892-.044-7.042 4.89-14.205.374-.54.306-1.27-.157-1.732-2.02-2.02-3.268-3.292-4.141-4.181-1.143-1.163-1.665-1.694-2.428-2.387a1.355 1.355 0 0 0-1.806-.02c-8.598 7.482-18.15 22.942-16.768 41.886.81 11.122 8.923 19.195 19.29 19.195zM66.063 3.217c.37.365.793.795 1.415 1.428.757.771 1.795 1.828 3.37 3.408-5.989 9.228-4.858 15.8-4.363 16.743.235.447.717.749 1.222.749 9.139 0 16.574 7.435 16.574 16.576 0 9.139-7.435 16.574-16.574 16.574-8.903 0-15.875-7.012-16.58-16.672C49.574 20.715 62.237 6.88 66.063 3.217zM.134 42.219v.001C.946 53.341 9.06 61.414 19.426 61.414c10.64 0 19.295-8.654 19.295-19.293 0-10.264-8.056-18.682-18.177-19.263-.175-1.89-.043-7.038 4.893-14.205.373-.54.305-1.27-.158-1.732-2.011-2.012-3.256-3.28-4.13-4.169-1.148-1.17-1.673-1.705-2.44-2.4a1.362 1.362 0 0 0-1.805-.017C8.305 7.817-1.246 23.275.134 42.219zM17.783 3.217c.373.367.799.8 1.427 1.44.756.77 1.79 1.824 3.358 3.396-5.988 9.23-4.859 15.8-4.365 16.743.235.446.719.749 1.223.749 9.14 0 16.576 7.435 16.576 16.576 0 9.139-7.436 16.574-16.576 16.574-8.901 0-15.875-7.012-16.581-16.674v.002C1.293 20.718 13.956 6.88 17.783 3.217z"/></g></svg>
